app/icons/trophy.svg

﻿<svg xmlns="http://www.w3.org/2000/svg" xmlns:xlink="http://www.w3.org/1999/xlink" viewBox="0 0 50 50" version="1.1" width="50" height="50">
<g id="surface1">
<path style=" " d="M 13 2 C 11.355469 2 10 3.355469 10 5 C 10 5.128906 10.023438 5.257813 10.074219 5.378906 C 9.425781 5.136719 8.730469 5 8 5 C 4.699219 5 2 7.699219 2 11 C 2 14.945313 5.253906 18.507813 8.289063 21.578125 C 9.808594 23.113281 11.308594 24.515625 12.390625 25.6875 C 12.933594 26.269531 13.371094 26.800781 13.644531 27.21875 C 13.921875 27.640625 14 27.949219 14 28 C 14 28.566406 13.566406 29 13 29 C 12.640625 28.996094 12.304688 29.183594 12.121094 29.496094 C 11.941406 29.808594 11.941406 30.191406 12.121094 30.503906 C 12.304688 30.816406 12.640625 31.003906 13 31 C 14.070313 31 15.011719 30.417969 15.542969 29.5625 C 16.574219 32.398438 17.792969 34.855469 19.25 36.6875 C 19.789063 37.371094 20.378906 37.96875 21 38.46875 L 21 42 L 18 42 C 15.25 42 13 44.25 13 47 L 13 48 L 36 48 L 36 46 L 37 47 C 37 44.25 34.75 42 32 42 L 29 42 L 29 38.414063 C 29.597656 37.929688 30.160156 37.355469 30.6875 36.703125 C 32.15625 34.863281 33.394531 32.390625 34.441406 29.535156 C 34.96875 30.40625 35.917969 31 37 31 C 37.359375 31.003906 37.695313 30.816406 37.878906 30.503906 C 38.058594 30.191406 38.058594 29.808594 37.878906 29.496094 C 37.695313 29.183594 37.359375 28.996094 37 29 C 36.433594 29 36 28.566406 36 28 C 36 27.949219 36.078125 27.640625 36.355469 27.21875 C 36.628906 26.800781 37.066406 26.269531 37.609375 25.6875 C 38.691406 24.515625 40.191406 23.113281 41.710938 21.578125 C 44.746094 18.507813 48 14.945313 48 11 C 48 7.699219 45.300781 5 42 5 C 41.269531 5 40.574219 5.136719 39.925781 5.378906 C 39.976563 5.257813 40 5.128906 40 5 C 40 3.355469 38.644531 2 37 2 Z M 13 4 L 37 4 C 37.566406 4 38 4.433594 38 5 C 38 5.566406 37.566406 6 37 6 L 13 6 C 12.433594 6 12 5.566406 12 5 C 12 4.433594 12.433594 4 13 4 Z M 8 7 C 10.214844 7 11.988281 8.769531 12 10.980469 C 12 11 12 11.019531 12 11.039063 C 12.003906 11.066406 12.003906 11.089844 12.003906 11.113281 C 12.269531 15.683594 12.949219 20.304688 14 24.488281 C 13.949219 24.433594 13.910156 24.382813 13.859375 24.328125 C 12.691406 23.070313 11.191406 21.671875 9.710938 20.171875 C 6.746094 17.175781 4 13.753906 4 11 C 4 8.78125 5.78125 7 8 7 Z M 42 7 C 44.21875 7 46 8.78125 46 11 C 46 13.753906 43.253906 17.175781 40.289063 20.171875 C 38.808594 21.671875 37.308594 23.070313 36.140625 24.328125 C 36.082031 24.390625 36.035156 24.449219 35.976563 24.515625 C 37.03125 20.347656 37.722656 15.738281 37.988281 11.171875 C 37.996094 11.113281 38 11.058594 38 11 C 38 8.78125 39.78125 7 42 7 Z M 13.953125 8 L 36.046875 8 C 35.941406 15 34.800781 22.472656 32.800781 28.214844 C 31.757813 31.21875 30.492188 33.746094 29.125 35.453125 C 27.757813 37.160156 26.367188 38 24.964844 38 C 23.558594 38 22.175781 37.15625 20.8125 35.441406 C 19.453125 33.730469 18.195313 31.195313 17.160156 28.183594 C 15.179688 22.433594 14.054688 14.960938 13.953125 8 Z M 24.691406 13 C 24.605469 13.5625 23.972656 15.394531 21.199219 15.394531 L 21.199219 17.363281 L 24.078125 17.363281 L 24.078125 25 L 27 25 L 27 13 Z M 27 39.601563 L 27 42 L 23 42 L 23 39.625 C 23.628906 39.859375 24.28125 40 24.964844 40 C 25.671875 40 26.347656 39.851563 27 39.601563 Z M 18 44 L 21.832031 44 C 21.941406 44.019531 22.050781 44.019531 22.15625 44 L 27.832031 44 C 27.941406 44.019531 28.050781 44.019531 28.15625 44 L 32 44 C 33.277344 44 34.152344 44.886719 34.589844 46 L 15.410156 46 C 15.847656 44.886719 16.722656 44 18 44 Z "/>
</g>
</svg>

<?xml version="1.0" encoding="utf-8"?>
<!-- Generator: Adobe Illustrator 17.0.0, SVG Export Plug-In . SVG Version: 6.00 Build 0)  -->
<!DOCTYPE svg PUBLIC "-//W3C//DTD SVG 1.1//EN" "http://www.w3.org/Graphics/SVG/1.1/DTD/svg11.dtd">
<svg version="1.1" id="Layer_1" xmlns="http://www.w3.org/2000/svg" xmlns:xlink="http://www.w3.org/1999/xlink" x="0px" y="0px"
	 width="50px" height="50px" viewBox="0 0 50 50" enable-background="new 0 0 50 50" xml:space="preserve">
<g>
	<path d="M21.199,15.395v1.969h2.879V25H27V13h-2.309C24.605,13.563,23.973,15.395,21.199,15.395z"/>
	<path d="M42,5c-0.73,0-1.426,0.137-2.074,0.379C39.977,5.258,40,5.129,40,5c0-1.645-1.355-3-3-3H13c-1.645,0-3,1.355-3,3
		c0,0.129,0.023,0.258,0.074,0.379C9.426,5.137,8.73,5,8,5c-3.301,0-6,2.699-6,6c0,3.945,3.254,7.508,6.289,10.578
		c1.52,1.535,3.02,2.938,4.102,4.109c0.543,0.582,0.98,1.113,1.254,1.531C13.922,27.641,14,27.949,14,28c0,0.566-0.434,1-1,1
		c-0.359-0.004-0.695,0.184-0.879,0.496c-0.18,0.313-0.18,0.695,0,1.008c0.184,0.313,0.52,0.5,0.879,0.496
		c1.07,0,2.012-0.582,2.543-1.438c1.031,2.836,2.25,5.293,3.707,7.125c0.539,0.684,1.129,1.281,1.75,1.781V42h-3c-2.75,0-5,2.25-5,5
		v1h23v-2l1,1c0-2.75-2.25-5-5-5h-3v-3.586c0.598-0.484,1.16-1.059,1.688-1.711c1.469-1.84,2.707-4.313,3.754-7.168
		C34.969,30.406,35.918,31,37,31c0.359,0.004,0.695-0.184,0.879-0.496c0.18-0.313,0.18-0.695,0-1.008
		c-0.184-0.313-0.52-0.5-0.879-0.496c-0.566,0-1-0.434-1-1c0-0.051,0.078-0.359,0.355-0.781c0.273-0.418,0.711-0.949,1.254-1.531
		c1.082-1.172,2.582-2.574,4.102-4.109C44.746,18.508,48,14.945,48,11C48,7.699,45.301,5,42,5z M13,4h24c0.566,0,1,0.434,1,1
		s-0.434,1-1,1H13c-0.566,0-1-0.434-1-1S12.434,4,13,4z M13.859,24.328c-1.168-1.258-2.668-2.656-4.148-4.156
		C6.746,17.176,4,13.754,4,11c0-2.219,1.781-4,4-4c2.215,0,3.988,1.77,4,3.98c0,0.02,0,0.039,0,0.059
		c0.004,0.027,0.004,0.051,0.004,0.074c0.266,4.57,0.945,9.191,1.996,13.375C13.949,24.434,13.91,24.383,13.859,24.328z M32,44
		c1.277,0,2.152,0.887,2.59,2H15.41c0.438-1.113,1.313-2,2.59-2h3.832c0.109,0.02,0.219,0.02,0.324,0h5.676
		c0.109,0.02,0.219,0.02,0.324,0H32z M23,42v-2.375C23.629,39.859,24.281,40,24.965,40c0.707,0,1.383-0.148,2.035-0.398V42H23z
		 M32.801,28.215c-1.043,3.004-2.309,5.531-3.676,7.238S26.367,38,24.965,38c-1.406,0-2.789-0.844-4.152-2.559
		c-1.359-1.711-2.617-4.246-3.652-7.258C15.18,22.434,14.055,14.961,13.953,8h22.094C35.941,15,34.801,22.473,32.801,28.215z
		 M40.289,20.172c-1.48,1.5-2.98,2.898-4.148,4.156c-0.059,0.063-0.105,0.121-0.164,0.188c1.055-4.168,1.746-8.777,2.012-13.344
		C37.996,11.113,38,11.059,38,11c0-2.219,1.781-4,4-4s4,1.781,4,4C46,13.754,43.254,17.176,40.289,20.172z"/>
</g>
</svg>
